Newaita-dark/apps/16/messengerfordesktop.svg

<svg height="16" viewBox="0 0 16 16" width="16" xmlns="http://www.w3.org/2000/svg" xmlns:xlink="http://www.w3.org/1999/xlink"><linearGradient id="a"><stop offset="0" stop-opacity=".313726"/><stop offset=".222222" stop-opacity=".27451"/><stop offset="1" stop-opacity="0"/></linearGradient><radialGradient id="b" cx="450.908936" cy="189.579361" gradientTransform="matrix(.00000009 -.0390662 -.0703192 -.00000005 21.434674 31.797665)" gradientUnits="userSpaceOnUse" r="21.166656" xlink:href="#a"/><radialGradient id="c" cx="450.908936" cy="189.579361" gradientTransform="matrix(-.00000009 .0390662 .0703192 .00000005 -10.519568 -3.763741)" gradientUnits="userSpaceOnUse" r="21.166656" xlink:href="#a"/><radialGradient id="d" cx="450.908936" cy="189.579361" gradientTransform="matrix(-.00000009 -.0390662 .0703192 -.00000005 -10.519568 31.797665)" gradientUnits="userSpaceOnUse" r="21.166656" xlink:href="#a"/><radialGradient id="e" cx="450.908936" cy="189.579361" gradientTransform="matrix(.00000009 .0390662 -.0703192 .00000005 21.434672 -3.763741)" gradientUnits="userSpaceOnUse" r="21.166656" xlink:href="#a"/><linearGradient id="f" gradientTransform="matrix(.0162229 0 0 .031253 1.315466 6.719392)" gradientUnits="userSpaceOnUse" x1="255.323059" x2="255.323044" y1="233.5" y2="254.666656"><stop offset="0" stop-opacity=".27451"/><stop offset="1" stop-opacity="0"/></linearGradient><linearGradient id="g"><stop offset="0" stop-color="#82b1ff"/><stop offset="1" stop-color="#448aff"/></linearGradient><linearGradient id="h" gradientUnits="userSpaceOnUse" x1="126.656886" x2="126.656886" xlink:href="#g" y1="148.833328" y2="233.5"/><linearGradient id="i" gradientUnits="userSpaceOnUse" x1="254" x2="254" xlink:href="#g" y1="-168.666672" y2="233.5"/><linearGradient id="j"><stop offset="0" stop-color="#e0e0e0"/><stop offset="1" stop-color="#f5f5f5"/></linearGradient><linearGradient id="k" gradientTransform="matrix(.031253 0 0 -.031253 0 8.745627)" gradientUnits="userSpaceOnUse" x1="254" x2="254" xlink:href="#j" y1=".666667" y2="64.166664"/><linearGradient id="l" gradientTransform="matrix(.031253 0 0 -.031253 2.976847 8.745627)" gradientUnits="userSpaceOnUse" x1="254" x2="254" xlink:href="#j" y1=".666667" y2="64.166664"/><linearGradient id="m" gradientTransform="matrix(.031253 0 0 -.031253 -2.976847 8.745627)" gradientUnits="userSpaceOnUse" x1="254" x2="254" xlink:href="#j" y1=".666667" y2="64.166664"/><path d="m8.269531 14.015625h1.324219v-.660156h-1.324219zm0 0" fill="url(#b)"/><path d="m2.644531 14.015625h-1.320312v.664063h1.320312zm0 0" fill="url(#c)"/><path d="m2.644531 14.015625h-1.320312v-.660156h1.320312zm0 0" fill="url(#d)"/><path d="m8.269531 14.015625h1.324219v.664063h-1.324219zm0 0" fill="url(#e)"/><path d="m2.644531 13.851562h5.625v.828126h-5.625zm0 0" fill="url(#f)"/><path d="m126.987873 148.840255c-2.624749-.124988-5.249498.874916-7.249307 2.499761l-73.992934 63.493937c-7.499284 6.499379-2.999714 18.623221 6.874343 18.623221h211.604793c11.373914 0 14.748591-15.373531 4.49957-20.123078l-137.611859-63.493936c-1.24988-.624941-2.749737-.999905-4.124606-.999905zm0 0" style="fill-rule:evenodd;stroke-width:3;stroke-linecap:round;stroke-linejoin:round;stroke:#212121;fill:url(#h)" transform="matrix(.031253 0 0 .031253 0 6.719392)"/><path d="m253.975747-168.629428c111.114389 0 201.105795 89.991406 201.105795 201.105795 0 110.989401-89.991406 200.980807-201.105795 200.980807-110.989402 0-201.105796-89.991406-201.105796-200.980807 0-111.114389 90.116394-201.105795 201.105796-201.105795zm0 0" fill="url(#i)" stroke="#333" stroke-linecap="round" stroke-width="3" transform="matrix(.031253 0 0 .031253 0 6.719392)"/><path d="m7.9375 14.015625c-3.480469 0-6.285156-2.800781-6.285156-6.28125 0-.023437 0-.042969 0-.0625.035156 3.453125 2.824218 6.222656 6.285156 6.222656s6.253906-2.769531 6.285156-6.222656v.0625c0 3.480469-2.804687 6.28125-6.285156 6.28125zm0 0" fill-opacity=".196078"/><path d="m7.9375 1.449219c-3.480469 0-6.285156 2.800781-6.285156 6.285156v.058594c.035156-3.453125 2.824218-6.222657 6.285156-6.222657s6.253906 2.769532 6.285156 6.222657c0-.019531 0-.039063 0-.058594 0-3.484375-2.804687-6.285156-6.285156-6.285156zm0 0" fill="#fff" fill-opacity=".392157"/><path d="m7.9375 1.402344c-3.507812 0-6.332031 2.824218-6.332031 6.332031 0 3.503906 2.824219 6.328125 6.332031 6.328125s6.332031-2.824219 6.332031-6.328125c0-3.507813-2.824219-6.332031-6.332031-6.332031zm0 .09375c3.457031 0 6.238281 2.78125 6.238281 6.238281 0 3.453125-2.78125 6.234375-6.238281 6.234375s-6.238281-2.78125-6.238281-6.234375c0-3.457031 2.78125-6.238281 6.238281-6.238281zm0 0" fill="#212121"/><path d="m7.9375 8.726562c.546875 0 .992188-.445312.992188-.992187 0-.550781-.445313-.996094-.992188-.996094s-.992188.445313-.992188.996094c0 .546875.445313.992187.992188.992187zm0 0" fill="url(#k)"/><path d="m10.914062 8.726562c.550782 0 .992188-.445312.992188-.992187 0-.550781-.441406-.996094-.992188-.996094-.546874 0-.992187.445313-.992187.996094 0 .546875.445313.992187.992187.992187zm0 0" fill="url(#l)"/><path d="m4.960938 8.726562c.546874 0 .992187-.445312.992187-.992187 0-.550781-.445313-.996094-.992187-.996094-.546876 0-.992188.445313-.992188.996094 0 .546875.445312.992187.992188.992187zm0 0" fill="url(#m)"/><path d="m7.9375 6.738281c-.550781 0-.992188.445313-.992188.996094 0 .039063.003907.082031.007813.121094.0625-.488281.476563-.867188.984375-.867188s.925781.378907.984375.867188c.007813-.039063.007813-.082031.007813-.121094 0-.550781-.441407-.996094-.992188-.996094zm0 0" fill="#fcfcfc"/><path d="m10.914062 6.738281c-.546874 0-.992187.445313-.992187.996094 0 .039063.003906.082031.007813.121094.0625-.488281.476562-.867188.984374-.867188.507813 0 .925782.378907.984376.867188.007812-.039063.007812-.082031.007812-.121094 0-.550781-.441406-.996094-.992188-.996094zm0 0" fill="#fcfcfc"/><path d="m4.960938 6.738281c-.550782 0-.992188.445313-.992188.996094 0 .039063.003906.082031.007812.121094.0625-.488281.476563-.867188.984376-.867188.507812 0 .925781.378907.984374.867188.003907-.039063.007813-.082031.007813-.121094 0-.550781-.441406-.996094-.992187-.996094zm0 0" fill="#fcfcfc"/><path d="m6.960938 7.898438c-.011719.054687-.015626.109374-.015626.164062 0 .550781.441407.992188.992188.992188s.992188-.441407.992188-.992188c0-.054688-.003907-.109375-.011719-.164062-.078125.46875-.488281.828124-.980469.828124s-.898438-.359374-.976562-.828124zm0 0" fill-opacity=".235294"/><path d="m9.9375 7.898438c-.011719.054687-.015625.109374-.015625.164062 0 .550781.445313.992188.992187.992188.550782 0 .992188-.441407.992188-.992188 0-.054688-.003906-.109375-.011719-.164062-.078125.46875-.484375.828124-.980469.828124-.492187 0-.898437-.359374-.976562-.828124zm0 0" fill-opacity=".235294"/><path d="m3.984375 7.898438c-.011719.054687-.015625.109374-.015625.164062 0 .550781.441406.992188.992188.992188.550781 0 .992187-.441407.992187-.992188 0-.054688-.003906-.109375-.011719-.164062-.078125.46875-.488281.828124-.980468.828124-.492188 0-.898438-.359374-.976563-.828124zm0 0" fill-opacity=".235294"/><g stroke="#212121" stroke-linecap="round" stroke-linejoin="round" stroke-width="3"><path d="m253.975747-64.223336c17.498329 0 31.746968 14.24864 31.746968 31.746969 0 17.623317-14.248639 31.871956-31.746968 31.871956s-31.746969-14.248639-31.746969-31.871956c0-17.498329 14.24864-31.746969 31.746969-31.746969zm0 0" fill="none" transform="matrix(.031253 0 0 -.031253 0 6.719392)"/><path d="m349.216651-64.223336c17.623318 0 31.746969 14.24864 31.746969 31.746969 0 17.623317-14.123651 31.871956-31.746969 31.871956-17.498329 0-31.746968-14.248639-31.746968-31.871956 0-17.498329 14.248639-31.746969 31.746968-31.746969zm0 0" fill="none" transform="matrix(.031253 0 0 -.031253 0 6.719392)"/><path d="m158.734842-64.223336c17.498329 0 31.746968 14.24864 31.746968 31.746969 0 17.623317-14.248639 31.871956-31.746968 31.871956s-31.746969-14.248639-31.746969-31.871956c0-17.498329 14.24864-31.746969 31.746969-31.746969zm0 0" fill="none" transform="matrix(.031253 0 0 -.031253 0 6.719392)"/></g></svg>

<?xml version="1.0" encoding="UTF-8"?>
<svg xmlns="http://www.w3.org/2000/svg" xmlns:xlink="http://www.w3.org/1999/xlink" width="16px" height="16px" viewBox="0 0 16 16" version="1.1">
<defs>
<radialGradient id="radial0" gradientUnits="userSpaceOnUse" cx="450.908936" cy="189.579361" fx="450.908936" fy="189.579361" r="21.166656" gradientTransform="matrix(0.0000000870852,-0.0390662,-0.0703192,-0.0000000507693,21.434674,31.797665)">
<stop offset="0" style="stop-color:rgb(0%,0%,0%);stop-opacity:0.313726;"/>
<stop offset="0.222222" style="stop-color:rgb(0%,0%,0%);stop-opacity:0.27451;"/>
<stop offset="1" style="stop-color:rgb(0%,0%,0%);stop-opacity:0;"/>
</radialGradient>
<radialGradient id="radial1" gradientUnits="userSpaceOnUse" cx="450.908936" cy="189.579361" fx="450.908936" fy="189.579361" r="21.166656" gradientTransform="matrix(-0.0000000870852,0.0390662,0.0703192,0.0000000507693,-10.519568,-3.763741)">
<stop offset="0" style="stop-color:rgb(0%,0%,0%);stop-opacity:0.313726;"/>
<stop offset="0.222222" style="stop-color:rgb(0%,0%,0%);stop-opacity:0.27451;"/>
<stop offset="1" style="stop-color:rgb(0%,0%,0%);stop-opacity:0;"/>
</radialGradient>
<radialGradient id="radial2" gradientUnits="userSpaceOnUse" cx="450.908936" cy="189.579361" fx="450.908936" fy="189.579361" r="21.166656" gradientTransform="matrix(-0.0000000870852,-0.0390662,0.0703192,-0.0000000507693,-10.519568,31.797665)">
<stop offset="0" style="stop-color:rgb(0%,0%,0%);stop-opacity:0.313726;"/>
<stop offset="0.222222" style="stop-color:rgb(0%,0%,0%);stop-opacity:0.27451;"/>
<stop offset="1" style="stop-color:rgb(0%,0%,0%);stop-opacity:0;"/>
</radialGradient>
<radialGradient id="radial3" gradientUnits="userSpaceOnUse" cx="450.908936" cy="189.579361" fx="450.908936" fy="189.579361" r="21.166656" gradientTransform="matrix(0.0000000870852,0.0390662,-0.0703192,0.0000000507693,21.434672,-3.763741)">
<stop offset="0" style="stop-color:rgb(0%,0%,0%);stop-opacity:0.313726;"/>
<stop offset="0.222222" style="stop-color:rgb(0%,0%,0%);stop-opacity:0.27451;"/>
<stop offset="1" style="stop-color:rgb(0%,0%,0%);stop-opacity:0;"/>
</radialGradient>
<linearGradient id="linear0" gradientUnits="userSpaceOnUse" x1="255.323059" y1="233.5" x2="255.323044" y2="254.666656" gradientTransform="matrix(0.0162229,0,0,0.031253,1.315466,6.719392)">
<stop offset="0" style="stop-color:rgb(0%,0%,0%);stop-opacity:0.27451;"/>
<stop offset="1" style="stop-color:rgb(0%,0%,0%);stop-opacity:0;"/>
</linearGradient>
<linearGradient id="linear1" gradientUnits="userSpaceOnUse" x1="116.416656" y1="148.833328" x2="116.416656" y2="233.5" gradientTransform="matrix(1,0,0,1,10.24023,0)">
<stop offset="0" style="stop-color:rgb(50.980395%,69.411767%,100%);stop-opacity:1;"/>
<stop offset="1" style="stop-color:rgb(26.666668%,54.11765%,100%);stop-opacity:1;"/>
</linearGradient>
<linearGradient id="linear2" gradientUnits="userSpaceOnUse" x1="254" y1="-168.666672" x2="254" y2="233.5" >
<stop offset="0" style="stop-color:rgb(50.980395%,69.411767%,100%);stop-opacity:1;"/>
<stop offset="1" style="stop-color:rgb(26.666668%,54.11765%,100%);stop-opacity:1;"/>
</linearGradient>
<linearGradient id="linear3" gradientUnits="userSpaceOnUse" x1="254" y1="0.666667" x2="254" y2="64.166664" gradientTransform="matrix(0.031253,0,0,-0.031253,0,8.745627)">
<stop offset="0" style="stop-color:rgb(87.843138%,87.843138%,87.843138%);stop-opacity:1;"/>
<stop offset="1" style="stop-color:rgb(96.078432%,96.078432%,96.078432%);stop-opacity:1;"/>
</linearGradient>
<linearGradient id="linear4" gradientUnits="userSpaceOnUse" x1="254" y1="0.666667" x2="254" y2="64.166664" gradientTransform="matrix(0.031253,0,0,-0.031253,2.976847,8.745627)">
<stop offset="0" style="stop-color:rgb(87.843138%,87.843138%,87.843138%);stop-opacity:1;"/>
<stop offset="1" style="stop-color:rgb(96.078432%,96.078432%,96.078432%);stop-opacity:1;"/>
</linearGradient>
<linearGradient id="linear5" gradientUnits="userSpaceOnUse" x1="254" y1="0.666667" x2="254" y2="64.166664" gradientTransform="matrix(0.031253,0,0,-0.031253,-2.976847,8.745627)">
<stop offset="0" style="stop-color:rgb(87.843138%,87.843138%,87.843138%);stop-opacity:1;"/>
<stop offset="1" style="stop-color:rgb(96.078432%,96.078432%,96.078432%);stop-opacity:1;"/>
</linearGradient>
</defs>
<g id="surface1">
<path style=" stroke:none;fill-rule:nonzero;fill:url(#radial0);" d="M 8.269531 14.015625 L 9.59375 14.015625 L 9.59375 13.355469 L 8.269531 13.355469 Z M 8.269531 14.015625 "/>
<path style=" stroke:none;fill-rule:nonzero;fill:url(#radial1);" d="M 2.644531 14.015625 L 1.324219 14.015625 L 1.324219 14.679688 L 2.644531 14.679688 Z M 2.644531 14.015625 "/>
<path style=" stroke:none;fill-rule:nonzero;fill:url(#radial2);" d="M 2.644531 14.015625 L 1.324219 14.015625 L 1.324219 13.355469 L 2.644531 13.355469 Z M 2.644531 14.015625 "/>
<path style=" stroke:none;fill-rule:nonzero;fill:url(#radial3);" d="M 8.269531 14.015625 L 9.59375 14.015625 L 9.59375 14.679688 L 8.269531 14.679688 Z M 8.269531 14.015625 "/>
<path style=" stroke:none;fill-rule:nonzero;fill:url(#linear0);" d="M 2.644531 13.851562 L 8.269531 13.851562 L 8.269531 14.679688 L 2.644531 14.679688 Z M 2.644531 13.851562 "/>
<path style="fill-rule:evenodd;fill:url(#linear1);stroke-width:3;stroke-linecap:round;stroke-linejoin:round;stroke:rgb(12.941177%,12.941177%,12.941177%);stroke-opacity:1;stroke-miterlimit:4;" d="M 126.987873 148.840255 C 124.363124 148.715267 121.738375 149.715171 119.738566 151.340016 L 45.745632 214.833953 C 38.246348 221.333332 42.745918 233.457174 52.619975 233.457174 L 264.224768 233.457174 C 275.598682 233.457174 278.973359 218.083643 268.724338 213.334096 L 131.112479 149.84016 C 129.862599 149.215219 128.362742 148.840255 126.987873 148.840255 Z M 126.987873 148.840255 " transform="matrix(0.031253,0,0,0.031253,0,6.719392)"/>
<path style="fill-rule:nonzero;fill:url(#linear2);stroke-width:3;stroke-linecap:round;stroke-linejoin:miter;stroke:rgb(20%,20%,20%);stroke-opacity:1;stroke-miterlimit:4;" d="M 253.975747 -168.629428 C 365.090136 -168.629428 455.081542 -78.638022 455.081542 32.476367 C 455.081542 143.465768 365.090136 233.457174 253.975747 233.457174 C 142.986345 233.457174 52.869951 143.465768 52.869951 32.476367 C 52.869951 -78.638022 142.986345 -168.629428 253.975747 -168.629428 Z M 253.975747 -168.629428 " transform="matrix(0.031253,0,0,0.031253,0,6.719392)"/>
<path style=" stroke:none;fill-rule:nonzero;fill:rgb(0%,0%,0%);fill-opacity:0.196078;" d="M 7.9375 14.015625 C 4.457031 14.015625 1.652344 11.214844 1.652344 7.734375 C 1.652344 7.710938 1.652344 7.691406 1.652344 7.671875 C 1.6875 11.125 4.476562 13.894531 7.9375 13.894531 C 11.398438 13.894531 14.191406 11.125 14.222656 7.671875 C 14.222656 7.691406 14.222656 7.710938 14.222656 7.734375 C 14.222656 11.214844 11.417969 14.015625 7.9375 14.015625 Z M 7.9375 14.015625 "/>
<path style=" stroke:none;fill-rule:nonzero;fill:rgb(100%,100%,100%);fill-opacity:0.392157;" d="M 7.9375 1.449219 C 4.457031 1.449219 1.652344 4.25 1.652344 7.734375 C 1.652344 7.753906 1.652344 7.773438 1.652344 7.792969 C 1.6875 4.339844 4.476562 1.570312 7.9375 1.570312 C 11.398438 1.570312 14.191406 4.339844 14.222656 7.792969 C 14.222656 7.773438 14.222656 7.753906 14.222656 7.734375 C 14.222656 4.25 11.417969 1.449219 7.9375 1.449219 Z M 7.9375 1.449219 "/>
<path style=" stroke:none;fill-rule:nonzero;fill:rgb(12.941177%,12.941177%,12.941177%);fill-opacity:1;" d="M 7.9375 1.402344 C 4.429688 1.402344 1.605469 4.226562 1.605469 7.734375 C 1.605469 11.238281 4.429688 14.0625 7.9375 14.0625 C 11.445312 14.0625 14.269531 11.238281 14.269531 7.734375 C 14.269531 4.226562 11.445312 1.402344 7.9375 1.402344 Z M 7.9375 1.496094 C 11.394531 1.496094 14.175781 4.277344 14.175781 7.734375 C 14.175781 11.1875 11.394531 13.96875 7.9375 13.96875 C 4.480469 13.96875 1.699219 11.1875 1.699219 7.734375 C 1.699219 4.277344 4.480469 1.496094 7.9375 1.496094 Z M 7.9375 1.496094 "/>
<path style=" stroke:none;fill-rule:nonzero;fill:url(#linear3);" d="M 7.9375 8.726562 C 8.484375 8.726562 8.929688 8.28125 8.929688 7.734375 C 8.929688 7.183594 8.484375 6.738281 7.9375 6.738281 C 7.390625 6.738281 6.945312 7.183594 6.945312 7.734375 C 6.945312 8.28125 7.390625 8.726562 7.9375 8.726562 Z M 7.9375 8.726562 "/>
<path style=" stroke:none;fill-rule:nonzero;fill:url(#linear4);" d="M 10.914062 8.726562 C 11.464844 8.726562 11.90625 8.28125 11.90625 7.734375 C 11.90625 7.183594 11.464844 6.738281 10.914062 6.738281 C 10.367188 6.738281 9.921875 7.183594 9.921875 7.734375 C 9.921875 8.28125 10.367188 8.726562 10.914062 8.726562 Z M 10.914062 8.726562 "/>
<path style=" stroke:none;fill-rule:nonzero;fill:url(#linear5);" d="M 4.960938 8.726562 C 5.507812 8.726562 5.953125 8.28125 5.953125 7.734375 C 5.953125 7.183594 5.507812 6.738281 4.960938 6.738281 C 4.414062 6.738281 3.96875 7.183594 3.96875 7.734375 C 3.96875 8.28125 4.414062 8.726562 4.960938 8.726562 Z M 4.960938 8.726562 "/>
<path style=" stroke:none;fill-rule:nonzero;fill:rgb(98.823529%,98.823529%,98.823529%);fill-opacity:1;" d="M 7.9375 6.738281 C 7.386719 6.738281 6.945312 7.183594 6.945312 7.734375 C 6.945312 7.773438 6.949219 7.816406 6.953125 7.855469 C 7.015625 7.367188 7.429688 6.988281 7.9375 6.988281 C 8.445312 6.988281 8.863281 7.367188 8.921875 7.855469 C 8.929688 7.816406 8.929688 7.773438 8.929688 7.734375 C 8.929688 7.183594 8.488281 6.738281 7.9375 6.738281 Z M 7.9375 6.738281 "/>
<path style=" stroke:none;fill-rule:nonzero;fill:rgb(98.823529%,98.823529%,98.823529%);fill-opacity:1;" d="M 10.914062 6.738281 C 10.367188 6.738281 9.921875 7.183594 9.921875 7.734375 C 9.921875 7.773438 9.925781 7.816406 9.929688 7.855469 C 9.992188 7.367188 10.40625 6.988281 10.914062 6.988281 C 11.421875 6.988281 11.839844 7.367188 11.898438 7.855469 C 11.90625 7.816406 11.90625 7.773438 11.90625 7.734375 C 11.90625 7.183594 11.464844 6.738281 10.914062 6.738281 Z M 10.914062 6.738281 "/>
<path style=" stroke:none;fill-rule:nonzero;fill:rgb(98.823529%,98.823529%,98.823529%);fill-opacity:1;" d="M 4.960938 6.738281 C 4.410156 6.738281 3.96875 7.183594 3.96875 7.734375 C 3.96875 7.773438 3.972656 7.816406 3.976562 7.855469 C 4.039062 7.367188 4.453125 6.988281 4.960938 6.988281 C 5.46875 6.988281 5.886719 7.367188 5.945312 7.855469 C 5.949219 7.816406 5.953125 7.773438 5.953125 7.734375 C 5.953125 7.183594 5.511719 6.738281 4.960938 6.738281 Z M 4.960938 6.738281 "/>
<path style=" stroke:none;fill-rule:nonzero;fill:rgb(0%,0%,0%);fill-opacity:0.235294;" d="M 6.960938 7.898438 C 6.949219 7.953125 6.945312 8.007812 6.945312 8.0625 C 6.945312 8.613281 7.386719 9.054688 7.9375 9.054688 C 8.488281 9.054688 8.929688 8.613281 8.929688 8.0625 C 8.929688 8.007812 8.925781 7.953125 8.917969 7.898438 C 8.839844 8.367188 8.429688 8.726562 7.9375 8.726562 C 7.445312 8.726562 7.039062 8.367188 6.960938 7.898438 Z M 6.960938 7.898438 "/>
<path style=" stroke:none;fill-rule:nonzero;fill:rgb(0%,0%,0%);fill-opacity:0.235294;" d="M 9.9375 7.898438 C 9.925781 7.953125 9.921875 8.007812 9.921875 8.0625 C 9.921875 8.613281 10.367188 9.054688 10.914062 9.054688 C 11.464844 9.054688 11.90625 8.613281 11.90625 8.0625 C 11.90625 8.007812 11.902344 7.953125 11.894531 7.898438 C 11.816406 8.367188 11.410156 8.726562 10.914062 8.726562 C 10.421875 8.726562 10.015625 8.367188 9.9375 7.898438 Z M 9.9375 7.898438 "/>
<path style=" stroke:none;fill-rule:nonzero;fill:rgb(0%,0%,0%);fill-opacity:0.235294;" d="M 3.984375 7.898438 C 3.972656 7.953125 3.96875 8.007812 3.96875 8.0625 C 3.96875 8.613281 4.410156 9.054688 4.960938 9.054688 C 5.511719 9.054688 5.953125 8.613281 5.953125 8.0625 C 5.953125 8.007812 5.949219 7.953125 5.941406 7.898438 C 5.863281 8.367188 5.453125 8.726562 4.960938 8.726562 C 4.46875 8.726562 4.0625 8.367188 3.984375 7.898438 Z M 3.984375 7.898438 "/>
<path style="fill:none;stroke-width:3;stroke-linecap:round;stroke-linejoin:round;stroke:rgb(12.941177%,12.941177%,12.941177%);stroke-opacity:1;stroke-miterlimit:4;" d="M 253.975747 -64.223336 C 271.474076 -64.223336 285.722715 -49.974696 285.722715 -32.476367 C 285.722715 -14.85305 271.474076 -0.604411 253.975747 -0.604411 C 236.477418 -0.604411 222.228778 -14.85305 222.228778 -32.476367 C 222.228778 -49.974696 236.477418 -64.223336 253.975747 -64.223336 Z M 253.975747 -64.223336 " transform="matrix(0.031253,0,0,-0.031253,0,6.719392)"/>
<path style="fill:none;stroke-width:3;stroke-linecap:round;stroke-linejoin:round;stroke:rgb(12.941177%,12.941177%,12.941177%);stroke-opacity:1;stroke-miterlimit:4;" d="M 349.216651 -64.223336 C 366.839969 -64.223336 380.96362 -49.974696 380.96362 -32.476367 C 380.96362 -14.85305 366.839969 -0.604411 349.216651 -0.604411 C 331.718322 -0.604411 317.469683 -14.85305 317.469683 -32.476367 C 317.469683 -49.974696 331.718322 -64.223336 349.216651 -64.223336 Z M 349.216651 -64.223336 " transform="matrix(0.031253,0,0,-0.031253,0,6.719392)"/>
<path style="fill:none;stroke-width:3;stroke-linecap:round;stroke-linejoin:round;stroke:rgb(12.941177%,12.941177%,12.941177%);stroke-opacity:1;stroke-miterlimit:4;" d="M 158.734842 -64.223336 C 176.233171 -64.223336 190.48181 -49.974696 190.48181 -32.476367 C 190.48181 -14.85305 176.233171 -0.604411 158.734842 -0.604411 C 141.236513 -0.604411 126.987873 -14.85305 126.987873 -32.476367 C 126.987873 -49.974696 141.236513 -64.223336 158.734842 -64.223336 Z M 158.734842 -64.223336 " transform="matrix(0.031253,0,0,-0.031253,0,6.719392)"/>
</g>
</svg>
